X:3138
T:Cochrane Waltz. HSJJ.087
M:3/8
L:1/16
Q:40
S:HSJ Jackson,Wyresdale,Lancs.1823
R:Waltz
O:England
A:Lancashire
H:1823
Z:vmp.Chris Partington.
K:D
A2|(dcde) d2|df A2A2|c-e a2a2|fgfe .d2|dcde .d2|df A2A2|c-e a2a2|d4|!
|FA|.G4(3FGF|.E4FG|A4(3GAG|F4(3FGA|.B2.d2 (3EFG|.A2.c2 (e/d/c/B/)|A4G2|A
4|!
|A2|d2 d/e/f/g/ a2|(g2e2) .c2|A2e2 g-e|df A2A2|d2 d/e/f/g/ a2|(g2e2c2)|A
e g2 ea|"?"^d4|!
|A2|FA d2d2|c-e a2A2|.c2 (c/d/e/f/) .g2|f2d2 A2|FA d2d2|ce a2A2|c2 c/d/e
/f/ ge|d4|]


